symbols/web/explore/materialsymbolsrounded/explore_wght200grad200fill1_24px.svg

<svg xmlns="http://www.w3.org/2000/svg" height="24" width="24"><path d="m8.325 16.2 4.925-2.425q.175-.075.312-.2.138-.125.213-.325L16.2 8.325q.125-.275-.05-.463-.175-.187-.475-.062l-4.925 2.425q-.175.075-.312.2-.138.125-.213.325L7.8 15.675q-.125.3.05.475t.475.05ZM12 13q-.425 0-.712-.288Q11 12.425 11 12t.288-.713Q11.575 11 12 11t.713.287Q13 11.575 13 12t-.287.712Q12.425 13 12 13Zm0 8.8q-2.025 0-3.812-.775-1.788-.775-3.113-2.1-1.325-1.325-2.1-3.113Q2.2 14.025 2.2 12t.775-3.825q.775-1.8 2.1-3.125Q6.4 3.725 8.188 2.962 9.975 2.2 12 2.2t3.825.762q1.8.763 3.125 2.088 1.325 1.325 2.088 3.112Q21.8 9.95 21.8 12t-.762 3.825q-.763 1.775-2.088 3.1-1.325 1.325-3.112 2.1Q14.05 21.8 12 21.8Z"/></svg>

<svg xmlns="http://www.w3.org/2000/svg" height="24" width="24"><path d="M8.325 16.2 13.25 13.775Q13.425 13.7 13.562 13.575Q13.7 13.45 13.775 13.25L16.2 8.325Q16.325 8.05 16.15 7.862Q15.975 7.675 15.675 7.8L10.75 10.225Q10.575 10.3 10.438 10.425Q10.3 10.55 10.225 10.75L7.8 15.675Q7.675 15.975 7.85 16.15Q8.025 16.325 8.325 16.2ZM12 13Q11.575 13 11.288 12.712Q11 12.425 11 12Q11 11.575 11.288 11.287Q11.575 11 12 11Q12.425 11 12.713 11.287Q13 11.575 13 12Q13 12.425 12.713 12.712Q12.425 13 12 13ZM12 21.8Q9.975 21.8 8.188 21.025Q6.4 20.25 5.075 18.925Q3.75 17.6 2.975 15.812Q2.2 14.025 2.2 12Q2.2 9.975 2.975 8.175Q3.75 6.375 5.075 5.05Q6.4 3.725 8.188 2.962Q9.975 2.2 12 2.2Q14.025 2.2 15.825 2.962Q17.625 3.725 18.95 5.05Q20.275 6.375 21.038 8.162Q21.8 9.95 21.8 12Q21.8 14.05 21.038 15.825Q20.275 17.6 18.95 18.925Q17.625 20.25 15.838 21.025Q14.05 21.8 12 21.8Z"/></svg>
